icons/zodiac-aquarius.svg

<svg
  width="24"
  height="24"
  viewBox="0 0 24 24"
  xmlns="http://www.w3.org/2000/svg"
  fill="none"
  stroke="currentColor"
  stroke-width="2"
  stroke-linecap="round"
  stroke-linejoin="round"
>
  <path d="M3 10l3-3 3 3 3-3 3 3 3-3 3 3" />
  <path d="M3 17l3-3 3 3 3-3 3 3 3-3 3 3" />
</svg>

<svg width="24" height="24" viewBox="0 0 24 24" fill="none" xmlns="http://www.w3.org/2000/svg">
<path d="M3 10L6 7L9 10L12 7L15 10L18 7L21 10" stroke="#1E293B" stroke-width="2" stroke-linecap="round" stroke-linejoin="round"/>
<path d="M3 17L6 14L9 17L12 14L15 17L18 14L21 17" stroke="#1E293B" stroke-width="2" stroke-linecap="round" stroke-linejoin="round"/>
</svg>
